(.../pcb-gcode-3.6.2.4/pcb-gcode.ulp)
(Copyright 2005 - 2012 by John Johnson)
(See readme.txt for licensing terms.)
(This file generated from the board:)
(.../Ionic_Skin_Sensorized_Glove.brd)
(Current profile is .../pcb-gcode-3.6.2.4/profiles/emc.pp  )
(This file generated 2017-09-12 6:35 PM)
(Settings from pcb-machine.h)
(spindle on time = 3.0000)
(spindle speed = 10000.0000)
(tool change at 0.0000 0.0000 1.0000 )
(feed rate xy = F0.00  )
(feed rate z  = F7.00  )
(Z Axis Settings)
(  High     Up        Down     Drill)
(0.5000 	0.4000 	-0.0120 	-0.0700 )
(Settings from pcb-defaults.h)
(isolate min = 0.0010)
(isolate max = 0.0200)
(isolate step = 0.0050)
(Generated top outlines, top drill, bottom outlines, bottom drill, )
(Unit of measure: inch)
( Tool|       Size       |  Min Sub |  Max Sub |   Count )
( T01 | 0.600mm 0.0236in | 0.0000in | 0.0000in |       0 )
( T02 | 0.800mm 0.0315in | 0.0000in | 0.0000in |       0 )
( T03 | 1.016mm 0.0400in | 0.0000in | 0.0000in |       0 )
( T04 | 1.100mm 0.0433in | 0.0000in | 0.0000in |       0 )
( T05 | 1.300mm 0.0512in | 0.0000in | 0.0000in |       0 )
( T06 | 3.000mm 0.1181in | 0.0000in | 0.0000in |       0 )
( T07 | 3.175mm 0.1250in | 0.0000in | 0.0000in |       0 )
(Inch Mode)
G20
(Absolute Coordinates)
G90
S10000
G00 Z0.5000 
G00 X0.0000 Y0.0000 
M03
G04 P3.000000
M05
G00 Z1.0000 
M06 T01 (0.0236 )
G00 Z0.4000 
M03
G04 P3.000000
G00 X-0.3000 Y0.4500 
G01 Z-0.0700 F7.00  
G00 Z0.4000 
G00 X-0.4000 Y0.3250 
G01 Z-0.0700 F7.00  
G00 Z0.4000 
G00 X-0.5250 Y0.3250 
G01 Z-0.0700 F7.00  
G00 Z0.4000 
G00 X-0.6250 Y0.3250 
G01 Z-0.0700 F7.00  
G00 Z0.4000 
G00 X-0.7250 Y0.3317 
G01 Z-0.0700 F7.00  
G00 Z0.4000 
G00 X-0.7500 Y0.4750 
G01 Z-0.0700 F7.00  
G00 Z0.4000 
G00 X-0.7500 Y0.6500 
G01 Z-0.0700 F7.00  
G00 Z0.4000 
G00 X-0.7500 Y0.7250 
G01 Z-0.0700 F7.00  
G00 Z0.4000 
G00 X-0.7550 Y0.8050 
G01 Z-0.0700 F7.00  
G00 Z0.4000 
G00 X-0.5000 Y0.9250 
G01 Z-0.0700 F7.00  
G00 Z0.4000 
G00 X-0.5000 Y1.2750 
G01 Z-0.0700 F7.00  
G00 Z0.4000 
G00 X-1.0250 Y1.5750 
G01 Z-0.0700 F7.00  
G00 Z0.4000 
G00 X-1.1000 Y1.5750 
G01 Z-0.0700 F7.00  
G00 Z0.4000 
G00 X-1.2000 Y1.5250 
G01 Z-0.0700 F7.00  
G00 Z0.4000 
G00 X-1.2250 Y1.2250 
G01 Z-0.0700 F7.00  
G00 Z0.4000 
G00 X-1.5000 Y1.2750 
G01 Z-0.0700 F7.00  
G00 Z0.4000 
G00 X-1.6000 Y1.2750 
G01 Z-0.0700 F7.00  
G00 Z0.4000 
G00 X-1.7250 Y1.3750 
G01 Z-0.0700 F7.00  
G00 Z0.4000 
G00 X-1.8000 Y1.3750 
G01 Z-0.0700 F7.00  
G00 Z0.4000 
G00 X-1.6500 Y0.9500 
G01 Z-0.0700 F7.00  
G00 Z0.4000 
G00 X-1.6500 Y0.8000 
G01 Z-0.0700 F7.00  
G00 Z0.4000 
G00 X-1.4500 Y0.6500 
G01 Z-0.0700 F7.00  
G00 Z0.4000 
G00 X-1.4000 Y0.8750 
G01 Z-0.0700 F7.00  
G00 Z0.4000 
G00 X-1.1500 Y0.9250 
G01 Z-0.0700 F7.00  
G00 Z0.4000 
G00 X-1.7500 Y0.5500 
G01 Z-0.0700 F7.00  
G00 Z0.4000 
G00 X-1.7750 Y0.4750 
G01 Z-0.0700 F7.00  
G00 Z0.4000 
G00 X-2.0250 Y0.6000 
G01 Z-0.0700 F7.00  
G00 Z0.4000 
G00 X-2.1250 Y0.5750 
G01 Z-0.0700 F7.00  
G00 Z0.4000 
G00 X-1.1750 Y0.1750 
G01 Z-0.0700 F7.00  
G00 Z0.4000 
G00 X-0.4000 Y0.1750 
G01 Z-0.0700 F7.00  
G00 Z0.4000 
M05
G00 Z1.0000 
G00 X0.0000 Y0.0000 
M06 T02 (0.0315 )
G00 Z0.4000 
M03
G04 P3.000000
G00 X-1.2750 Y0.1750 
G01 Z-0.0700 F7.00  
G00 Z0.4000 
G00 X-1.2750 Y0.2750 
G01 Z-0.0700 F7.00  
G00 Z0.4000 
G00 X-1.2750 Y0.3750 
G01 Z-0.0700 F7.00  
G00 Z0.4000 
G00 X-1.2750 Y0.4750 
G01 Z-0.0700 F7.00  
G00 Z0.4000 
G00 X-1.2750 Y0.5750 
G01 Z-0.0700 F7.00  
G00 Z0.4000 
G00 X-1.2750 Y0.6750 
G01 Z-0.0700 F7.00  
G00 Z0.4000 
G00 X-1.2750 Y0.7750 
G01 Z-0.0700 F7.00  
G00 Z0.4000 
G00 X-1.2750 Y0.8750 
G01 Z-0.0700 F7.00  
G00 Z0.4000 
G00 X-1.2750 Y0.9750 
G01 Z-0.0700 F7.00  
G00 Z0.4000 
G00 X-1.2750 Y1.0750 
G01 Z-0.0700 F7.00  
G00 Z0.4000 
G00 X-1.2750 Y1.1750 
G01 Z-0.0700 F7.00  
G00 Z0.4000 
G00 X-1.2750 Y1.2750 
G01 Z-0.0700 F7.00  
G00 Z0.4000 
G00 X-1.2750 Y1.3750 
G01 Z-0.0700 F7.00  
G00 Z0.4000 
G00 X-1.2750 Y1.4750 
G01 Z-0.0700 F7.00  
G00 Z0.4000 
G00 X-1.2750 Y1.5750 
G01 Z-0.0700 F7.00  
G00 Z0.4000 
G00 X-1.8750 Y1.5750 
G01 Z-0.0700 F7.00  
G00 Z0.4000 
G00 X-1.8750 Y1.4750 
G01 Z-0.0700 F7.00  
G00 Z0.4000 
G00 X-1.8750 Y1.3750 
G01 Z-0.0700 F7.00  
G00 Z0.4000 
G00 X-1.8750 Y1.2750 
G01 Z-0.0700 F7.00  
G00 Z0.4000 
G00 X-1.8750 Y1.1750 
G01 Z-0.0700 F7.00  
G00 Z0.4000 
G00 X-1.8750 Y1.0750 
G01 Z-0.0700 F7.00  
G00 Z0.4000 
G00 X-1.8750 Y0.9750 
G01 Z-0.0700 F7.00  
G00 Z0.4000 
G00 X-1.8750 Y0.8750 
G01 Z-0.0700 F7.00  
G00 Z0.4000 
G00 X-1.8750 Y0.7750 
G01 Z-0.0700 F7.00  
G00 Z0.4000 
G00 X-1.8750 Y0.6750 
G01 Z-0.0700 F7.00  
G00 Z0.4000 
G00 X-1.8750 Y0.5750 
G01 Z-0.0700 F7.00  
G00 Z0.4000 
G00 X-1.8750 Y0.4750 
G01 Z-0.0700 F7.00  
G00 Z0.4000 
G00 X-1.8750 Y0.3750 
G01 Z-0.0700 F7.00  
G00 Z0.4000 
G00 X-1.8750 Y0.2750 
G01 Z-0.0700 F7.00  
G00 Z0.4000 
G00 X-1.8750 Y0.1750 
G01 Z-0.0700 F7.00  
G00 Z0.4000 
M05
G00 Z1.0000 
G00 X0.0000 Y0.0000 
M06 T03 (0.0400 )
G00 Z0.4000 
M03
G04 P3.000000
G00 X-0.1800 Y0.2500 
G01 Z-0.0700 F7.00  
G00 Z0.4000 
G00 X-0.1800 Y0.3500 
G01 Z-0.0700 F7.00  
G00 Z0.4000 
G00 X-0.1800 Y0.4500 
G01 Z-0.0700 F7.00  
G00 Z0.4000 
G00 X-0.1800 Y0.5500 
G01 Z-0.0700 F7.00  
G00 Z0.4000 
G00 X-0.1800 Y0.6500 
G01 Z-0.0700 F7.00  
G00 Z0.4000 
G00 X-0.1800 Y0.7500 
G01 Z-0.0700 F7.00  
G00 Z0.4000 
G00 X-0.4750 Y0.2500 
G01 Z-0.0700 F7.00  
G00 Z0.4000 
G00 X-0.5750 Y0.2500 
G01 Z-0.0700 F7.00  
G00 Z0.4000 
G00 X-0.6750 Y0.2500 
G01 Z-0.0700 F7.00  
G00 Z0.4000 
G00 X-0.7750 Y0.2500 
G01 Z-0.0700 F7.00  
G00 Z0.4000 
G00 X-0.8750 Y0.2500 
G01 Z-0.0700 F7.00  
G00 Z0.4000 
G00 X-0.9750 Y0.2500 
G01 Z-0.0700 F7.00  
G00 Z0.4000 
G00 X-0.9750 Y0.0750 
G01 Z-0.0700 F7.00  
G00 Z0.4000 
G00 X-0.8750 Y0.0750 
G01 Z-0.0700 F7.00  
G00 Z0.4000 
G00 X-0.7750 Y0.0750 
G01 Z-0.0700 F7.00  
G00 Z0.4000 
G00 X-0.6750 Y0.0750 
G01 Z-0.0700 F7.00  
G00 Z0.4000 
G00 X-0.5750 Y0.0750 
G01 Z-0.0700 F7.00  
G00 Z0.4000 
G00 X-0.4750 Y0.0750 
G01 Z-0.0700 F7.00  
G00 Z0.4000 
G00 X-0.3750 Y0.0750 
G01 Z-0.0700 F7.00  
G00 Z0.4000 
G00 X-1.0750 Y0.0750 
G01 Z-0.0700 F7.00  
G00 Z0.4000 
G00 X-1.5500 Y0.6250 
G01 Z-0.0700 F7.00  
G00 Z0.4000 
G00 X-1.5500 Y0.7250 
G01 Z-0.0700 F7.00  
G00 Z0.4000 
M05
G00 Z1.0000 
G00 X0.0000 Y0.0000 
M06 T04 (0.0433 )
G00 Z0.4000 
M03
G04 P3.000000
G00 X-1.4750 Y0.2750 
G01 Z-0.0700 F7.00  
G00 Z0.4000 
G00 X-1.4750 Y0.4750 
G01 Z-0.0700 F7.00  
G00 Z0.4000 
G00 X-1.5750 Y0.4750 
G01 Z-0.0700 F7.00  
G00 Z0.4000 
G00 X-1.6750 Y0.4750 
G01 Z-0.0700 F7.00  
G00 Z0.4000 
G00 X-1.6750 Y0.2750 
G01 Z-0.0700 F7.00  
G00 Z0.4000 
M05
G00 Z1.0000 
G00 X0.0000 Y0.0000 
M06 T05 (0.0512 )
G00 Z0.4000 
M03
G04 P3.000000
G00 X-0.1300 Y0.8750 
G01 Z-0.0700 F7.00  
G00 Z0.4000 
G00 X-0.1300 Y0.9750 
G01 Z-0.0700 F7.00  
G00 Z0.4000 
G00 X-0.1300 Y1.0950 
G01 Z-0.0700 F7.00  
G00 Z0.4000 
G00 X-0.1300 Y1.1950 
G01 Z-0.0700 F7.00  
G00 Z0.4000 
G00 X-0.1300 Y1.3200 
G01 Z-0.0700 F7.00  
G00 Z0.4000 
G00 X-0.1300 Y1.4200 
G01 Z-0.0700 F7.00  
G00 Z0.4000 
G00 X-0.1300 Y1.5450 
G01 Z-0.0700 F7.00  
G00 Z0.4000 
G00 X-0.1300 Y1.6450 
G01 Z-0.0700 F7.00  
G00 Z0.4000 
G00 X-0.2500 Y1.8450 
G01 Z-0.0700 F7.00  
G00 Z0.4000 
G00 X-0.3500 Y1.8450 
G01 Z-0.0700 F7.00  
G00 Z0.4000 
G00 X-0.4750 Y1.8450 
G01 Z-0.0700 F7.00  
G00 Z0.4000 
G00 X-0.5750 Y1.8450 
G01 Z-0.0700 F7.00  
G00 Z0.4000 
G00 X-0.7000 Y1.8450 
G01 Z-0.0700 F7.00  
G00 Z0.4000 
G00 X-0.8000 Y1.8450 
G01 Z-0.0700 F7.00  
G00 Z0.4000 
G00 X-0.9250 Y1.8450 
G01 Z-0.0700 F7.00  
G00 Z0.4000 
G00 X-1.0250 Y1.8450 
G01 Z-0.0700 F7.00  
G00 Z0.4000 
G00 X-1.1500 Y1.8450 
G01 Z-0.0700 F7.00  
G00 Z0.4000 
G00 X-1.2500 Y1.8450 
G01 Z-0.0700 F7.00  
G00 Z0.4000 
G00 X-1.3750 Y1.8450 
G01 Z-0.0700 F7.00  
G00 Z0.4000 
G00 X-1.4750 Y1.8450 
G01 Z-0.0700 F7.00  
G00 Z0.4000 
G00 X-1.6000 Y1.8450 
G01 Z-0.0700 F7.00  
G00 Z0.4000 
G00 X-1.7000 Y1.8450 
G01 Z-0.0700 F7.00  
G00 Z0.4000 
G00 X-1.8250 Y1.8450 
G01 Z-0.0700 F7.00  
G00 Z0.4000 
G00 X-1.9250 Y1.8450 
G01 Z-0.0700 F7.00  
G00 Z0.4000 
G00 X-2.0500 Y1.6450 
G01 Z-0.0700 F7.00  
G00 Z0.4000 
G00 X-2.0500 Y1.5450 
G01 Z-0.0700 F7.00  
G00 Z0.4000 
G00 X-2.0500 Y1.4200 
G01 Z-0.0700 F7.00  
G00 Z0.4000 
G00 X-2.0500 Y1.3200 
G01 Z-0.0700 F7.00  
G00 Z0.4000 
G00 X-2.0500 Y1.1950 
G01 Z-0.0700 F7.00  
G00 Z0.4000 
G00 X-2.0500 Y1.0950 
G01 Z-0.0700 F7.00  
G00 Z0.4000 
G00 X-2.0500 Y0.9700 
G01 Z-0.0700 F7.00  
G00 Z0.4000 
G00 X-2.0500 Y0.8700 
G01 Z-0.0700 F7.00  
G00 Z0.4000 
M05
G00 Z1.0000 
G00 X0.0000 Y0.0000 
M06 T06 (0.1181 )
G00 Z0.4000 
M03
G04 P3.000000
G00 X-0.4297 Y0.5565 
G01 Z-0.0700 F7.00  
G00 Z0.4000 
G00 X-1.0203 Y0.5565 
G01 Z-0.0700 F7.00  
G00 Z0.4000 
M05
G00 Z1.0000 
G00 X0.0000 Y0.0000 
M06 T07 (0.1250 )
G00 Z0.4000 
M03
G04 P3.000000
G00 X-0.1000 Y0.1250 
G01 Z-0.0700 F7.00  
G00 Z0.4000 
G00 X-1.7250 Y0.6750 
G01 Z-0.0700 F7.00  
G00 Z0.4000 
G00 X-2.0750 Y0.1250 
G01 Z-0.0700 F7.00  
G00 Z0.4000 
G00 X-2.0750 Y1.8450 
G01 Z-0.0700 F7.00  
G00 Z0.4000 
G00 X-0.1000 Y1.8450 
G01 Z-0.0700 F7.00  
G00 Z0.4000 
T01 
G00 Z0.5000 
M05
M02
